X: 89
T:Johnny O'Leary's #1
R:Jig
Z:Added by alf.warnock@rogers.com, after Vince Milne workshop in Ottawa, Feb 1
Z:8
M:6/8
L:1/8
K:A
AB|:cAA eAA|a^ga e2d|cAA eAA|Bcd BAB|
cAA eAA|a^ga e2d|cAc BAB|cAA A2B:|
|:~c3 ecA|~d3 bfd|~c3 ecA|Bcd Bcd|
~c3 ecA|~d3 bfd|~c3 BAB|cAA A2b:|

